X: 19013
T: Bessie's Haggies
C: J.MacFadyen
B: RSCDS 19-1(II)
Z: John Chambers <jc:trillian.mit.edu>
R: reel, march
M: C|
L: 1/8
%--------------------
K: D
A, \
| "D"D2 F>E D2 A2 | "G"BA GF "A7"E>D EF \
| "D"D2 F>E D2 A2 | "G"B>c "D"dA F2 A2 |
| "Bm"B2 d2 "F#m"F2 A2 | "G"BA GF "A7"E>D EF \
| "Bm"D2 F2 "A7"A2 d>e | "G"f2 D2 "D"F2 A2 ||
|| "D"D2 A2 d2 cB | "A7"c>d c/d/e E3 F \
| "D"D2 A2 "Bm"d2 de | "A"dc BA "D"d3 e |
| "D"fd "A"ec "Bm"dB "F#m"cA | "Em"BA GF "A"E>D EF \
| "D"DE FG "A7"AB cA | "Bm"d>e fD "D"F2 A2 |]
%%center Book19/19012-Bessies_Haggies-1.abc

%%sep 1 1 500
%%sep 1 1 500

